X:1
T:Quis puer, Immanuel
T:Daniel Friderici
T:Source : Bicinia sacra---Rostock---J.Richelius---1642. Editor : André Vierendeels (01/07/17).
T:Notes : Original clefs : G2, G2 Editorial accidentals above the staff
T:Quis puer, Immanuel
T:©
T:©
T:©
C:Daniel Friderici
Z:©
%%score [ 1 2 ]
L:1/8
Q:1/4=120
M:2/2
K:F
V:1 treble nm="Soprano 1" snm="S 1"
V:2 treble nm="Soprano 2" snm="S 2"
V:1
 F8 | c8 | A8 | z4 F4 | A6 B2 | c8 | A8 | z4 F4 | F2 G2 A2 B2 | c6 d2 | e2 f2 g2 f2 | e2 d2 c4- | %12
w: Quis|pu-|er,|quis|pu- *||er,|quis|pu- * * *||||
 c2 B2 A4 | G4 F4 | B2 AB c2 =BA | =B2 c4 B2 | c4 c4 | d2 d2 c2 A2 | B2 B2 A2 F2 | Bcdc B2 B2 | %20
w: |er, quis|pu- * * * * *||er? Im-|ma- nu- el, Im-|ma- nu- el, Im-|ma- * * * * nu-|
 A2 F2 c4 | z2 F2 AGAB | c4 z2 c2 | d4 c2 c2 | B2 A2 A2 GF | G8 | F8 :: c3 c c2 B2 | A3 A A2 G2 | %29
w: el, quid fert,|quid fert, _ _ _|_ pro-|mis- sa sa-|lu- * * * *||tis.|Du- cit ad hunc|pu- e- rum quae|
 F6 C2 | c3 c c2 B2 | A3 A A2 G2 | F4 c2 de | f4 e2 d2- | dc c3 =B/A/ B2 | c8 | d2 c2 B2 A2 | %37
w: vi- a,|du- cit ad hunc|pu- e- rum quae|vi- * * *|* ta, quae-|* * vi- * * *|a?|So- la Fi- des,|
 d2 c2 B2 A2 | dcBc defe | d4 c4 | de f3 e/d/ e2 | f8 :| %42
w: so- la Fi- des,|so- * * * * * * *|* la|Fi- * * * * *|des.|
V:2
 z8 | F8 | c8 | A8 | z4 F4 | A6 B2 | c8 | A8 | z4 F4 | F2 G2 A2 B2 | c6 d2 | e2 f2 g2 f2 | %12
w: |Quis|pu-|er,|quis|pu- *||ern|quis|pu- * * *|||
 e2 d2 c2 d2 | e2 de f4- | f4 e4 | d2 c2 d4 | c4 A4 | B2 B2 A2 c2 | d2 d2 c2 f2 | dcBc d2 d2 | %20
w: ||||er? Im-|ma- nu- el, Im-|ma- nu- el, Im-|ma- * * * * nu-|
 c4 z2 F2 | c4 z2 F2 | AGAB c2 A2 | B4 A2 A2 | G2 F2 F4- | F2 ED E4 | F8 :: z8 | c3 c c2 B2 | %29
w: el, quid|fert, quid|fert, _ _ _ _ pro-|mis- sa sa-|lu- * *||tis.||Du- cit ad hunc|
 A3 A A2 G2 | FEFG A2 G2 | c3 c c2 B2 | A3 A A2 G2 | F4 c2 de | f2 e2 d4 | c8 | B2 A2 d2 c2 | %37
w: pu- e- rum quae|vi- * * * * a,|du- cit ad hunc|pu- e- rum quae|vi- a, quae _|vi- * *|a?|So- la Fi- des,|
 B2 A2 d2 c2 | Bcde fedc | B4 A4 | G2 F2 G4 | F8 :| %42
w: so- la Fi- des|so- * * * * * * *|* la|Fi- * *|des.|

